assets/skill/front-css.svg

<svg width="58" height="57" viewBox="0 0 58 57" fill="none" xmlns="http://www.w3.org/2000/svg">
<rect x="0.372559" width="56.7516" height="56.7516" rx="8.25478" fill="url(#paint0_linear_92_641)"/>
<path d="M12.2885 46.5381L8.62744 5.67529H48.8695L45.2036 46.5316L28.724 51.0766L12.2885 46.5381Z" fill="#1572B6"/>
<path d="M28.7485 47.4652L42.1139 43.8314L45.2581 9.28687H28.7485V47.4652Z" fill="#33A9DC"/>
<path d="M28.7485 23.9442H35.2831L35.7337 18.878H28.7485V13.9302H28.7661H41.1307L41.0125 15.2572L39.7998 28.892H28.7485V23.9442Z" fill="white"/>
<path d="M28.7485 36.7641L28.7261 36.7704L23.225 35.3188L22.8734 31.4714H20.1995H17.9141L18.6061 39.046L28.7245 41.7899L28.7485 41.7837V36.7641Z" fill="#EBEBEB"/>
<path d="M35.0125 28.376L34.4024 35.0773L28.7485 36.5831V41.79L39.141 38.9469L39.2181 38.1017L40.0989 28.376H35.0125Z" fill="white"/>
<path d="M28.7485 13.9302V16.8144V18.5615V18.5735H16.8253H16.8093L16.7101 17.5295L16.4847 15.1755L16.3663 13.9302H28.7485Z" fill="#EBEBEB"/>
<path d="M28.7485 23.7327V26.9374V28.8785V28.8919H23.515H23.4996L23.4038 27.7319L23.1876 25.1164L23.0734 23.7327H28.7485Z" fill="#EBEBEB"/>
<defs>
<linearGradient id="paint0_linear_92_641" x1="28.7484" y1="0" x2="28.7484" y2="56.7516" gradientUnits="userSpaceOnUse">
<stop stop-color="#FDFDFD"/>
<stop offset="1" stop-color="#F5F4F4"/>
</linearGradient>
</defs>
</svg>

<svg xmlns="http://www.w3.org/2000/svg" width="58" height="57" fill="none" viewBox="0 0 58 57"><rect width="56.752" height="56.752" x=".373" fill="url(#paint0_linear_92_641)" rx="8.255"/><path fill="#1572b6" d="M12.289 46.538 8.627 5.675H48.87l-3.666 40.857-16.48 4.545z"/><path fill="#33a9dc" d="m28.749 47.465 13.365-3.634 3.144-34.544h-16.51z"/><path fill="#fff" d="M28.749 23.944h6.534l.45-5.066H28.75V13.93h12.38l-.118 1.327L39.8 28.892H28.749z"/><path fill="#ebebeb" d="m28.749 36.764-.023.006-5.501-1.451-.352-3.848h-4.959l.692 7.575 10.118 2.744.024-.006z"/><path fill="#fff" d="m35.013 28.376-.61 6.701-5.654 1.506v5.207l10.392-2.843.077-.845.88-9.726z"/><path fill="#ebebeb" d="M28.749 13.93v4.643h-11.94l-.099-1.044-.225-2.354-.119-1.245zm0 9.803v5.159H23.5l-.096-1.16-.216-2.616-.115-1.383z"/><defs><linearGradient id="paint0_linear_92_641" x1="28.748" x2="28.748" y1="0" y2="56.752" gradientUnits="userSpaceOnUse"><stop stop-color="#fdfdfd"/><stop offset="1" stop-color="#f5f4f4"/></linearGradient></defs></svg>
